X:1
T:Unnamed Jig 2
R:Jig
S:Valérie Yvon (la flûtiste)
C:Une joueuse de concertina irlandaise (Ellen ???)
M:6/8
L:1/8
K:G
|: "Gsus" DGG GFD | "Gsus/C" c2c ABc | "Dsus" d2d cAG | A2A "Dsus/F" =FEF |
   "Gsus(2)" DGG GFD | "Gsus/C" c2c ABc | "Dsus" d2d cA "Dsus(2)" F | AG "D" F "Gsus" G3 :|
|: "Gsus" dgg agf | "D" d2g gfg | "Gsus(2)"GBd "/F"=fef | "Csus/B"A2B cBA |
   "Gsus" GBd g2f | "Dsus(2)"d2e "/B" fdc | "Am" B2d "C" cAF | "D(2)"AGF "Gsus(2)"G3 :|
